packages/ui/public/icons/sidebar-logout-icon-2.svg

<svg width="20" height="20" viewBox="0 0 20 20" fill="none" xmlns="http://www.w3.org/2000/svg">
  <path d="M14 15L19 10M19 10L14 5M19 10H7M10 15C10 15.93 10 16.395 9.89778 16.7765C9.62038 17.8117 8.81173 18.6204 7.77646 18.8978C7.39496 19 6.92997 19 6 19H5.5C4.10218 19 3.40326 19 2.85195 18.7716C2.11687 18.4672 1.53284 17.8831 1.22836 17.1481C1 16.5967 1 15.8978 1 14.5V5.5C1 4.10217 1 3.40326 1.22836 2.85195C1.53284 2.11687 2.11687 1.53284 2.85195 1.22836C3.40326 1 4.10218 1 5.5 1H6C6.92997 1 7.39496 1 7.77646 1.10222C8.81173 1.37962 9.62038 2.18827 9.89778 3.22354C10 3.60504 10 4.07003 10 5" stroke-linecap="round" stroke-linejoin="round" />
</svg>

<svg width="20" height="20" fill="none" xmlns="http://www.w3.org/2000/svg"><path d="m14 15 5-5m0 0-5-5m5 5H7m3 5c0 .93 0 1.395-.102 1.776a3 3 0 0 1-2.122 2.122C7.395 19 6.93 19 6 19h-.5c-1.398 0-2.097 0-2.648-.228a3 3 0 0 1-1.624-1.624C1 16.597 1 15.898 1 14.5v-9c0-1.398 0-2.097.228-2.648a3 3 0 0 1 1.624-1.624C3.403 1 4.102 1 5.5 1H6c.93 0 1.395 0 1.776.102a3 3 0 0 1 2.122 2.122C10 3.605 10 4.07 10 5"/></svg>
